svgs/solid/symbols.svg

<svg xmlns="http://www.w3.org/2000/svg" viewBox="0 0 512 512"><!--! Font Awesome Pro 6.1.2 by @fontawesome - https://fontawesome.com License - https://fontawesome.com/license (Commercial License) Copyright 2022 Fonticons, Inc. --><path d="M500.3 7.253C507.7 13.33 512 22.41 512 32V176C512 202.5 483.3 224 448 224C412.7 224 384 202.5 384 176C384 149.5 412.7 128 448 128V71.03L352 90.23V208C352 234.5 323.3 256 288 256C252.7 256 224 234.5 224 208C224 181.5 252.7 160 288 160V64C288 48.75 298.8 35.61 313.7 32.62L473.7 .6218C483.1-1.259 492.9 1.175 500.3 7.253H500.3zM192 .0003C209.7 .0003 224 14.33 224 32C224 49.67 209.7 64 192 64H32C14.33 64 .0006 49.67 .0006 32C.0006 14.33 14.33 .0003 32 .0003H192zM342.6 502.6C330.1 515.1 309.9 515.1 297.4 502.6C284.9 490.1 284.9 469.9 297.4 457.4L457.4 297.4C469.9 284.9 490.1 284.9 502.6 297.4C515.1 309.9 515.1 330.1 502.6 342.6L342.6 502.6zM.0006 128C.0006 110.3 14.33 96 32 96H192C209.7 96 224 110.3 224 128C224 145.7 209.7 160 192 160H144V192C144 209.7 129.7 224 112 224C94.33 224 80 209.7 80 192V160H32C14.33 160 .0006 145.7 .0006 128zM368 328C368 350.1 350.1 368 328 368C305.9 368 288 350.1 288 328C288 305.9 305.9 288 328 288C350.1 288 368 305.9 368 328zM432 472C432 449.9 449.9 432 472 432C494.1 432 512 449.9 512 472C512 494.1 494.1 512 472 512C449.9 512 432 494.1 432 472zM145.9 384.8L169.4 361.4C181.9 348.9 202.1 348.9 214.6 361.4C227.1 373.9 227.1 394.1 214.6 406.6L189.9 431.3L215.2 457.1C227.4 470.8 226.8 491.1 214 503.2C201.2 515.4 180.9 514.8 168.8 502L144.7 476.6L131.9 489.4C117.4 503.9 97.74 512 77.25 512C34.59 512 0 477.4 0 434.7V433.8C0 414.4 7.247 395.7 20.33 381.3L33.38 366.9C22.55 354.3 16 337.9 16 320C16 280.2 48.24 248 88 248C127.8 248 160 280.2 160 320C160 341.5 150.6 360.8 135.6 373.1L145.9 384.8zM64 433.8V434.7C64 442.1 69.94 448 77.26 448C80.77 448 84.14 446.6 86.63 444.1L100.6 430.1L81.14 409.5L67.68 424.3C65.31 426.9 64 430.3 64 433.8H64zM104 320C104 311.2 96.84 304 88 304C79.16 304 72 311.2 72 320C72 328.8 79.16 336 88 336C96.84 336 104 328.8 104 320z"/></svg>

<svg xmlns="http://www.w3.org/2000/svg" viewBox="0 0 512 512"><!--! Font Awesome Pro 6.2.0 by @fontawesome - https://fontawesome.com License - https://fontawesome.com/license (Commercial License) Copyright 2022 Fonticons, Inc. --><path d="M500.3 7.3C507.7 13.3 512 22.4 512 32V176c0 26.5-28.7 48-64 48s-64-21.5-64-48s28.7-48 64-48V71L352 90.2V208c0 26.5-28.7 48-64 48s-64-21.5-64-48s28.7-48 64-48V64c0-15.3 10.8-28.4 25.7-31.4l160-32c9.4-1.9 19.1 .6 26.6 6.6zM32 0H192c17.7 0 32 14.3 32 32s-14.3 32-32 32H32C14.3 64 0 49.7 0 32S14.3 0 32 0zM502.6 342.6l-160 160c-12.5 12.5-32.8 12.5-45.3 0s-12.5-32.8 0-45.3l160-160c12.5-12.5 32.8-12.5 45.3 0s12.5 32.8 0 45.3zM0 128c0-17.7 14.3-32 32-32h80 80c17.7 0 32 14.3 32 32s-14.3 32-32 32H144v32c0 17.7-14.3 32-32 32s-32-14.3-32-32V160H32c-17.7 0-32-14.3-32-32zM368 328c0 22.1-17.9 40-40 40s-40-17.9-40-40s17.9-40 40-40s40 17.9 40 40zM472 512c-22.1 0-40-17.9-40-40s17.9-40 40-40s40 17.9 40 40s-17.9 40-40 40zM135.6 374l10.3 10.8 23.5-23.5c12.5-12.5 32.8-12.5 45.3 0s12.5 32.8 0 45.3l-24.7 24.7L215.2 458c12.2 12.8 11.6 33.1-1.2 45.2s-33.1 11.6-45.2-1.2l-24.1-25.4-12.8 12.8C117.4 503.9 97.7 512 77.3 512C34.6 512 0 477.4 0 434.7v-.9c0-19.4 7.2-38.2 20.3-52.6l13.1-14.4C22.5 354.3 16 337.9 16 320c0-39.8 32.2-72 72-72s72 32.2 72 72c0 21.5-9.4 40.8-24.4 54zm-68 50.3c-2.4 2.6-3.7 6-3.7 9.5v.9c0 7.3 5.9 13.3 13.3 13.3c3.5 0 6.9-1.4 9.4-3.9l14-14L81.1 409.5 67.7 424.3zM104 320c0-8.8-7.2-16-16-16s-16 7.2-16 16s7.2 16 16 16s16-7.2 16-16z"/></svg>
